X: 39803
T: Theo Paige's
R: reel
M: 4/4
K: Dmajor
|:fdcd edcA|BG D/E/F GBAG|FDAF G3 B|1 Adce g2 b/a/g:|2 Adag fd-de||
|:fd d/d/d fd f/g/a|ge e/e/e gebg|fdAF G3 A|1 FAdf g2 b/a/g:|2 FAag fd- d2||
|:fd ~d2 edcA|BGEF GBAG|~F3 A ~G3 B|1 ABde gbag:|2 Adag fd d2||
|:fd ~d2 fdfa|ge (3.e.e.e gebe|fdAF G2 AG|1 FAdf gbag:|2 F2 ag fd d2||

